package/converter/svg/duotone/alarm-plus.svg

<svg xmlns="http://www.w3.org/2000/svg" viewBox="0 0 512 512"><!-- Font Awesome Pro 6.0.0-alpha2 by @fontawesome - https://fontawesome.com License - https://fontawesome.com/license (Commercial License) --><defs><style>.fa-secondary{opacity:.4}</style></defs><path d="M480 480.002C480 471.793 476.875 463.584 470.624 457.353L435.25 421.949C464.375 383.328 480 336.336 480 287.965C480 165.015 383.584 63.993 256 63.993C132.25 63.993 32 164.227 32 287.965C32 336.336 47.75 383.328 76.75 421.949L41.333 457.459C35.111 463.699 32 471.869 32 480.038C32 488.195 35.101 496.351 41.304 502.589L41.305 502.59C47.543 508.863 55.772 512 64 512C72.214 512 80.429 508.874 86.665 502.62L122 467.195C161.687 497.066 208.844 512.002 256 512.002S350.312 497.066 390 467.195L425.447 502.669C431.688 508.889 439.857 512 448.027 512C456.185 512 464.343 508.898 470.582 502.694L470.597 502.678C476.865 496.445 480 488.224 480 480.002ZM344.002 312H280V376C280 389.195 269.199 400 256.002 400C242.801 400 232 389.195 232 376V312H168.002C154.801 312 144 301.195 144 288C144 274.797 154.801 264 168.002 264H232V200C232 186.797 242.801 176 256.002 176C269.199 176 280 186.797 280 200V264H344.002C357.199 264 368 274.797 368 288C368 301.195 357.199 312 344.002 312Z " class="fa-secondary"></path><path d="M96 0C43 0 0 42.992 0 95.988C0.125 114.234 5.375 131.984 15.25 147.234L161.25 25.621C143.5 9.125 120.25 0 96 0ZM416 0C391.75 0 368.5 9.125 350.875 25.621L496.75 147.234C506.625 131.984 511.875 114.234 512 95.988C512 42.992 469 0 416 0ZM344.002 264H280V200C280 186.797 269.199 176 256.002 176C242.801 176 232 186.797 232 200V264H168.002C154.801 264 144 274.797 144 288C144 301.195 154.801 312 168.002 312H232V376C232 389.195 242.801 400 256.002 400C269.199 400 280 389.195 280 376V312H344.002C357.199 312 368 301.195 368 288C368 274.797 357.199 264 344.002 264Z " class="fa-primary"></path></svg>

<svg xmlns="http://www.w3.org/2000/svg" viewBox="0 0 512 512"><!--! Font Awesome Pro 6.6.0 by @fontawesome - https://fontawesome.com License - https://fontawesome.com/license (Commercial License) Copyright 2024 Fonticons, Inc. --><defs><style>.fa-secondary{opacity:.4}</style></defs><path class="fa-secondary" d="M32 288c0 50.3 16.6 96.8 44.6 134.2L41.4 457.4C35.1 463.6 32 471.8 32 480s3.1 16.4 9.4 22.6c12.5 12.5 32.8 12.5 45.3 0l35.2-35.2c37.4 28 83.8 44.6 134.1 44.6s96.8-16.6 134.2-44.6l35.2 35.2c12.5 12.5 32.8 12.5 45.3 0s12.5-32.8 0-45.3l-35.2-35.2c28-37.4 44.6-83.8 44.6-134.2C480 164.3 379.7 64 256 64S32 164.3 32 288zm112 0c0-13.3 10.7-24 24-24l64 0 0-64c0-13.3 10.7-24 24-24s24 10.7 24 24l0 64 64 0c13.3 0 24 10.7 24 24s-10.7 24-24 24l-64 0 0 64c0 13.3-10.7 24-24 24s-24-10.7-24-24l0-64-64 0c-13.3 0-24-10.7-24-24z"/><path class="fa-primary" d="M14.9 146.4L160 25.4C143 9.6 120.2 0 95.2 0C42.6 0 0 42.6 0 95.2c0 18.8 5.5 36.3 14.9 51.1zM280 200c0-13.3-10.7-24-24-24s-24 10.7-24 24l0 64-64 0c-13.3 0-24 10.7-24 24s10.7 24 24 24l64 0 0 64c0 13.3 10.7 24 24 24s24-10.7 24-24l0-64 64 0c13.3 0 24-10.7 24-24s-10.7-24-24-24l-64 0 0-64zM352 25.4L497.1 146.4C506.5 131.6 512 114 512 95.2C512 42.6 469.4 0 416.8 0C391.8 0 369 9.6 352 25.4z"/></svg>
